images/cornell_logo.svg

<?xml version="1.0" encoding="UTF-8"?>
<svg id="katman_1" data-name="katman 1" xmlns="http://www.w3.org/2000/svg" viewBox="0 0 300 300">
  <defs>
    <style>
      .cls-1 {
        fill: #231f20;
      }
    </style>
  </defs>
  <path class="cls-1" d="m150,0C67.3,0,0,67.3,0,150s67.3,150,150,150,150-67.3,150-150S232.7,0,150,0Zm0,293c-78.9,0-143-64.1-143-143S71.1,7,150,7s143,64.1,143,143-64.1,143-143,143Zm0-255.6c-62.1,0-112.7,50.5-112.7,112.7s50.6,112.6,112.7,112.6,112.7-50.6,112.7-112.7-50.6-112.6-112.7-112.6Zm0,218.3c-58.3,0-105.7-47.3-105.7-105.7s47.4-105.7,105.7-105.7,105.7,47.4,105.7,105.7-47.4,105.7-105.7,105.7h0ZM78.3,74.1v96.3c0,22.4,12.2,43.9,35.6,62.7,17.2,14,34.2,21.4,35,21.6l1.4.6,1.4-.6c.8-.4,17.6-7.8,34.8-21.6,23-18.6,35.4-39.5,35.4-61.1v-97.9H78.3Zm136.2,7v51.9H85.3v-51.9h129.2Zm-30.3,127.6h-5.2c-5-.2-8.2-.4-11.4-.8-3.4-.4-6.4-.6-10.8-.6-1.8,0-3,.4-4.2,1v-51.9c.4-.2,1-.6,2-.8,0,0,3.2-.6,6.6-.2l6,.6c3.4.4,6.2.8,9,.8h8v51.9Zm-37.4-.6c-1-.4-2.2-.8-3.6-.8-4.2,0-7.4.2-10.8.6-3.2.4-6.6.6-11.4.8h-5.2v-52.1h8c2.6,0,5.6-.4,9-.8l5.8-.6c3.6-.4,6.8.2,6.8.2.6.2,1.2.4,1.6.6l-.2,52.1Zm-61.5-37.7v-30.4h61.5v8.8c-.4,0-4.4-1-8.8-.4l-6,.6c-3.2.4-6,.6-8.6.8h-14.8v9.2h-6.8v8.4h6.8v11h-6.8v8.4h6.8v8.8h-6.8v8.4h6.8v11.4l3.4.2c.2,0,4.2.2,9,.2,5.2-.2,8.6-.4,12-.8,3.2-.2,6.2-.6,10-.6,1.2,0,1.6.4,2.2,1.4.4.4.8,1,1.6,1.6v28.6c-15-7.7-61.5-34.5-61.5-75.6h0Zm67.3,75.9v-29.2c.8-.6,1.2-1.2,1.6-1.6.8-1,1.2-1.4,2.6-1.4,4,0,6.8.2,10,.6s6.8.6,12,.8c5.2.2,9-.2,9-.2l3.4-.2v-9.6h6.2v-8.4h-6.2v-8.8h6.6v-8.3h-6.6v-11h6.2v-8.4h-6.2v-11.2h-14.6c-2.4,0-5.2-.4-8.4-.8l-6-.6c-4.6-.6-8.6.4-8.8.4s-.4,0-.6.2v-8.8h61.9v32.4c-.2,39.7-47.7,66.9-62.1,74.1h0Zm-48.5-124.7c5,3.2,12.2,7.6,12.4,7.8l1.8,1,1.8-1c.4-.2,8.4-4.6,13.2-7.8,4.2-2.6,6-5.6,6.2-9v-28.2h-41.9v28.2c.3,3.2,2.5,6.2,6.5,9Zm28.3-9.5c0,1.6-2,3-3,3.6-3.4,2.2-8.4,5.2-11,6.6-2.4-1.6-7.2-4.4-10.6-6.6-2.4-1.8-3.4-3-3.4-3.6v-7.6h28v1.2c.2,3.6.2,6,0,6.4Zm0-20.6v6h-27.8v-6h27.8Zm36.4,29.9c5,3.2,12.2,7.6,12.4,7.8l1.8,1,1.8-1c.4-.2,8.4-4.6,13.2-7.8,4.2-2.6,6-5.6,6.2-9v-28.2h-41.9v28.4c.3,3,2.5,6,6.5,8.8Zm28.5-9.1c0,1.4-2,2.8-3,3.4-3.4,2.2-8.4,5.2-11,6.6-2.4-1.6-7.2-4.4-10.4-6.6-2.4-1.8-3.4-3-3.4-3.6v-.8s10.8-7.8,13.8-10c2.6,1.8,11.4,7.6,14.2,9.4,0,.8,0,1.2-.2,1.6,0-.2,0,0,0,0Zm-27.9-21h28v11l-14.4-9.4-1.8,1.6-11.8,8.6v-3.2c0-3,0-6,0-8.6h0Zm-.6,71.9l8.8.2v3.8l-8.8-.2c-1.6,0-3-.2-5-.4l-3-.4h-1.6l-.2-3.6h2l3,.4c2,0,3.6.2,4.8.2h0Zm0,11.4l8.8.2v3.8l-8.8-.2c-1.6,0-3-.2-5-.4l-3-.4h-1.6l-.2-3.6h2l3,.4c2,0,3.6.2,4.8.2h0Zm-9.4,14.1l-.2-3.8h2l3.2.4c1.8.2,3.2.4,4.4.4l4.2.2,4.8.2v3.8l-4.8-.2-4.2-.2c-1.4,0-3-.2-4.8-.4l-3.2-.4h-1.4Zm9.4,8.2l8.8.2v3.8l-8.8-.2c-1.4,0-3-.2-4.8-.4,0,0-3-.4-3.2-.4h-1.6l-.2-3.8h2l3.2.4c1.8.2,3.4.4,4.6.4Zm-46.8-29.9v-3.8l8.8-.2c1.4,0,2.8-.2,4.8-.4l2.8-.4h1.8v3.8h-1.6l-2.8.4c-1.8.2-3.6.4-5,.4l-8.8.2Zm16.4,6.8h1.8v3.8h-1.6l-2.6.4c-1.8.2-3.6.4-5,.4l-8.8.2-.2-3.6,8.8-.2c1.4,0,2.8-.2,4.8-.4-.2-.4,2.8-.6,2.8-.6h0Zm0,11.2h1.8v3.8h-1.6l-3,.4c-1.8.2-3.4.4-4.8.4h-1l-8,.2v-3.8l8-.2h1c1.4,0,2.8-.2,4.6-.4l3-.4Zm0,11.3h1.8v3.8h-1.6l-2.8.4c-1.8.2-3.6.4-5,.4h-.8l-7.6.2v-3.8l7.6-.2h1.4c1.4,0,2.8-.2,4.8-.4-.6-.4,2.2-.4,2.2-.4h0Zm-6.4-169.3l-1.2-12.8,4-.4,1,11.8c.4,3.4,1.6,5.6,4.6,5.2,3-.2,4-2.6,3.6-6l-1-11.8,4-.4,1.2,12.8c.4,5.4-2.4,8-7.6,8.4-5,.6-8.2-1.6-8.6-6.8Zm-60.9,36.3l-12.8-15.6,9-7.4,2,2.4-6,5,3.2,4,5.4-4.6,2,2.4-5.4,4.6,3.6,4.4,6-5,2,2.4-9,7.4Zm34.6-21.6l-6.8-19,3.8-1.4,5.8,16,7.4-2.6,1.2,3-11.4,4Zm56.3-8.1l-3.8-.6,2.6-20,5,.6,5.4,16,2-15,3.8.6-2.6,20-5-.6-5.4-16-2,15Zm-108.3,48.9l-15.4-12.8,3.2-3.8,16.4,3.8-11.8-9.6,2.4-3,15.4,12.8-3.2,3.8-16.4-3.8,11.8,9.6-2.4,3Zm-9.6,16.2l-7.4-4,.6-1.2c.8-1.6,1.6-1.8,3.2-1.6l6.6,1,2-4-8.6-1c-1,0-2.2,0-2.8,1,1-2.4-.2-4.8-2.2-5.8-5-2.6-7.2,1.8-9.2,5.6l-2,3.8,17.8,9.4,2-3.2Zm-9.5-6.6l-.6,1.2-4.8-2.6.6-1.2c1-1.8,2-3.6,4.4-2.4,2.2,1,1.2,3.2.4,5Zm223.1,11.8l18.8-7.8,1.6,3.8-18.8,7.6-1.6-3.6Zm-70.3-65.2l-3.8-1.2,6-19.2,3.8,1.2-6,19.2Zm92.2,77.5l-1.4-5.4,3-.8,3.8,15-3,.8-1.4-5.4-16.6,4.2-1-4,16.6-4.4Zm-4.6,26l12-8,.2,4.8-8.4,5.2,8.6,4.4.2,4.2-12.6-6.4-8,.4-.2-4,8.2-.6Zm-18.5-52.5c3.4-1.8-2.4-8.6,3.2-12,4-2.2,7-.2,8.8,2.8,1,1.6,1.6,3,1.8,4.6l-3,1.4c-.2-1.4-.6-2.6-1.4-4-.8-1.2-2-2.4-4-1.4-3,1.8,2.6,8.6-3.2,12-3.8,2.2-7,.2-9-3.4-1.2-1.8-1.4-2.8-1.8-4.8l3.4-1.6c0,1.6.4,3.2,1.2,4.6.8,1.2,2.4,2.6,4,1.8h0Zm-20.4-19.2l6.2-5.4.8,1c1.2,1.4,1,2,.2,3.4l-3.2,6,3,3.4,3.8-7.6c.4-1,.8-2,.2-3,1.8,1.8,4.6,1.6,6.2,0,4.2-3.8.8-7.4-2-10.8l-2.8-3.2-15.4,13.4,3,2.8Zm12.6-11.4l1,1c1.4,1.6,2.6,3.4.8,5-1.8,1.8-3.6.2-5-1.4l-1-1,4.2-3.6Zm-43.6-12.6l-4.4-2.2,3-21.2,3.8,1.8-2.6,16.4,11.8-12,3.6,1.8-15.2,15.4Zm12.4,7.6l12.4-15.8,9.2,7.2-1.8,2.4-6-4.8-3,4,5.6,4.4-1.8,2.4-5.6-4.4-3.6,4.6,6.2,5-1.8,2.4-9.8-7.4Zm-129.4-3.4l-9.8-17.7,3.6-1.8,8.4,15,6.8-3.8,1.6,2.8-10.6,5.5Zm108,225.1l1.4,3.8-3.8,1.4-1.4-3.8,3.8-1.4Zm-24.7-9.6l-3.4,21.4,4.2-1,.8-5,8-1.8,2.6,4.2,4.4-1-12-18.2-4.6,1.4Zm1.8,12.4l1.2-8.6,4.6,7.6-5.8,1Zm86.5-55.3c-1.8-1.4-4-1.6-6.6,0,.6-2.2-.4-4.6-1.8-5.4-2.6-2-5.8-.4-8,2.4-2.2,3-2.4,6.2.6,8.4,1.8,1.4,3.8,1.2,5.8,0-.6,2.6,0,4.6,1.8,5.8,3.2,2.4,6.6,1,8.8-2.2,2.4-3.2,2.8-6.6-.6-9h0Zm-9,1.2c-1.4.8-3,1.8-4.4.8s-1.2-2.6-.2-3.8c1-1.4,2.2-1.4,3.6-.6.8,1,1.2,2.6,1,3.6Zm7.4,6c-1,1.4-2.8,1.8-4.2.8s-1.6-2.4-1.2-4c1.6-1,3.2-1.8,5-.6,1.2.8,1.2,2.4.4,3.8h0Zm-118.3,37.7l-5.4-.4-1.2,20.2,5.4.4c6.2.4,11.8-1.6,12.2-9.4.6-8.2-5-10.6-11-10.8Zm6.8,10.4c-.2,4.4-3.6,6.8-7,6.6l-2.2-.2.8-13.8,2.2.2c3.4.2,6.4,2.8,6.2,7.2ZM23.8,125.8c6,1.8,11-.4,12.8-6.6,1.8-6-1.6-10.6-7.4-12.2-5.8-1.8-11,.6-12.6,6.6-2,6,1.4,10.6,7.2,12.2Zm-4.2-11.4c1.2-3.8,5.2-4.4,8.6-3.4,3.6,1,6.6,3.4,5.4,7.4-1.2,4-5.2,4.4-8.6,3.4-3.6-1-6.6-3.6-5.4-7.4Zm182.7,141.1l-5,2.6,9.6,17.8,5-2.6c5.4-3,9.2-7.4,5.4-14.4-3.8-7-9.6-6.2-15-3.4h0Zm8.6,14.7l-2,1.2-6.6-12,2-1.2c3-1.8,7-1,9,2.8,2.4,3.8.6,7.4-2.4,9.2Zm-96.9-7.1l11.6,3-.8,3-7.6-2-1.4,5,7,1.8-.8,3-7-1.8-1.6,5.4,7.8,2-.8,3-11.6-3,5.2-19.4Zm112.5-3.4l2.2,3.4-3.4,2.2-2.2-3.4,3.4-2.2Zm7.6-28l14.2,14.4-2.8,2.8-11-11.2-.6,4.4-3.2-.4,1-7.6,2.4-2.4ZM25.6,184.2l-8.6,2.4-1.2-4,19.4-5.6,3,10.8-3,1-2-7-4.8,1.4,1.8,6.6-3,1-1.6-6.6Zm256.4,5.3c-.4,1.6-1.2,3.2-1.8,4.4l-3.4-1.2c.8-.8,1.8-1.8,2-3.6.6-2,.4-4.4-2.2-5.2-2.4-.8-4,1.2-4.8,3.4-.4,1.2-.6,2.4-.6,3.6l-10.4-3.2,3.4-11.2,2.8,1-2.2,7.6,4.2,1.4c0-.6.2-1.2.4-1.8.8-2.6,3.2-5.8,8.2-4.4,3.6.9,5.6,4.5,4.4,9.2h0ZM21.8,150.4c-7-.4-10.6-5-10.2-11.6,0-1.4.4-3,1.2-4.6l3.4.6c-1,1.6-1.4,2.8-1.4,4.2-.2,4.2,2.8,6.8,7,7.2,4.2.2,7.4-2,7.6-6.2.2-1.6-.2-3.4-.6-4.4h3.4c.2,1.6.4,3,.4,4.6-.4,6.4-4,10.8-10.8,10.2h0Zm23.1,51.5c-2.8-5.6-8.2-7-13.6-4.4-5.4,2.6-8,7.8-5.2,13.4,2.8,5.6,8.4,7,13.8,4.2,5.4-2.4,7.8-7.4,5-13.2h0Zm-6.7,9.8c-3.2,1.8-7.2,1.8-9-1.8s.8-6.6,4.2-8.4c3.2-1.6,7.2-1.8,8.8,1.8,1.5,3.6-.9,6.8-4,8.4h0Zm231.4-9.6c-3.4-1.8-6.4-1-8.2,2.4-.8,1.6-.8,2.8,0,4.4-2.6-1.6-5.2-4-3.4-7,.6-1.4,1.4-2,2.2-2.8l-2.6-1.8c-1.2,1-1.8,2-2.4,3.4-2.8,5.8,1.8,10.2,6.6,12.4,4.2,2,8.8,3,11.6-1.8,1.8-4.2.2-7.4-3.8-9.2h0Zm.8,7.8c-1,1.8-2.8,1.8-4.6,1-1.8-1-3-2.4-2.2-4.2,1-1.8,2.8-1.8,4.6-.8,1.8.8,3.2,2.4,2.2,4Zm-206.7,20.8l-10.2,8.2c-4.2,3.4-8,2.4-11.2-1.8-3.2-4-3.4-8,1-11.2l10.2-8,2.4,3.2-9,7.2c-2.6,2-3.8,4.4-1.8,6.8,1.8,2.4,4.4,1.8,7-.2l9-7.4,2.6,3.2Zm31.8,24.4l-5-2.4-9,18.2,5,2.4c5.4,2.8,11.4,3.4,15-3.8,3.4-7.2-.6-11.4-6-14.4h0Zm2,12.5c-2,4-6,4.8-9,3.2l-2-1,6.2-12.4,2,1c3,1.5,4.8,5.2,2.8,9.2Zm-14.6-19.7l-12.8,15.6-3.8-3,3.6-16.6-9.6,11.8-3-2.4,12.8-15.6,3.8,3.2-3.6,16.6,9.6-11.8,3,2.2Z"/>
</svg>

<?xml version="1.0" encoding="utf-8"?>
<!-- Generator: Adobe Illustrator 27.5.0, SVG Export Plug-In . SVG Version: 6.00 Build 0)  -->
<svg version="1.1" id="katman_1" xmlns="http://www.w3.org/2000/svg" xmlns:xlink="http://www.w3.org/1999/xlink" x="0px" y="0px"
	 viewBox="0 0 300 300" style="enable-background:new 0 0 300 300;" xml:space="preserve">
<style type="text/css">
	.st0{fill:#FFFFFF;}
</style>
<path class="st0" d="M150,0C67.3,0,0,67.3,0,150s67.3,150,150,150s150-67.3,150-150S232.7,0,150,0z M150,293C71.1,293,7,228.9,7,150
	S71.1,7,150,7s143,64.1,143,143S228.9,293,150,293z M150,37.4c-62.1,0-112.7,50.5-112.7,112.7S87.9,262.7,150,262.7
	S262.7,212.1,262.7,150S212.1,37.4,150,37.4L150,37.4z M150,255.7c-58.3,0-105.7-47.3-105.7-105.7S91.7,44.3,150,44.3
	S255.7,91.7,255.7,150S208.3,255.7,150,255.7L150,255.7z M78.3,74.1v96.3c0,22.4,12.2,43.9,35.6,62.7c17.2,14,34.2,21.4,35,21.6
	l1.4,0.6l1.4-0.6c0.8-0.4,17.6-7.8,34.8-21.6c23-18.6,35.4-39.5,35.4-61.1V74.1H78.3z M214.5,81.1V133H85.3V81.1H214.5z
	 M184.2,208.7H179c-5-0.2-8.2-0.4-11.4-0.8c-3.4-0.4-6.4-0.6-10.8-0.6c-1.8,0-3,0.4-4.2,1v-51.9c0.4-0.2,1-0.6,2-0.8
	c0,0,3.2-0.6,6.6-0.2l6,0.6c3.4,0.4,6.2,0.8,9,0.8h8L184.2,208.7L184.2,208.7z M146.8,208.1c-1-0.4-2.2-0.8-3.6-0.8
	c-4.2,0-7.4,0.2-10.8,0.6c-3.2,0.4-6.6,0.6-11.4,0.8h-5.2v-52.1h8c2.6,0,5.6-0.4,9-0.8l5.8-0.6c3.6-0.4,6.8,0.2,6.8,0.2
	c0.6,0.2,1.2,0.4,1.6,0.6L146.8,208.1L146.8,208.1z M85.3,170.4V140h61.5v8.8c-0.4,0-4.4-1-8.8-0.4l-6,0.6c-3.2,0.4-6,0.6-8.6,0.8
	h-14.8v9.2h-6.8v8.4h6.8v11h-6.8v8.4h6.8v8.8h-6.8v8.4h6.8v11.4l3.4,0.2c0.2,0,4.2,0.2,9,0.2c5.2-0.2,8.6-0.4,12-0.8
	c3.2-0.2,6.2-0.6,10-0.6c1.2,0,1.6,0.4,2.2,1.4c0.4,0.4,0.8,1,1.6,1.6V246C131.8,238.3,85.3,211.5,85.3,170.4L85.3,170.4z
	 M152.6,246.3v-29.2c0.8-0.6,1.2-1.2,1.6-1.6c0.8-1,1.2-1.4,2.6-1.4c4,0,6.8,0.2,10,0.6s6.8,0.6,12,0.8s9-0.2,9-0.2l3.4-0.2v-9.6
	h6.2v-8.4h-6.2v-8.8h6.6V180h-6.6v-11h6.2v-8.4h-6.2v-11.2h-14.6c-2.4,0-5.2-0.4-8.4-0.8l-6-0.6c-4.6-0.6-8.6,0.4-8.8,0.4
	s-0.4,0-0.6,0.2v-8.8h61.9v32.4C214.5,211.9,167,239.1,152.6,246.3L152.6,246.3L152.6,246.3z M104.1,121.6c5,3.2,12.2,7.6,12.4,7.8
	l1.8,1l1.8-1c0.4-0.2,8.4-4.6,13.2-7.8c4.2-2.6,6-5.6,6.2-9V84.4H97.6v28.2C97.9,115.8,100.1,118.8,104.1,121.6z M132.4,112.1
	c0,1.6-2,3-3,3.6c-3.4,2.2-8.4,5.2-11,6.6c-2.4-1.6-7.2-4.4-10.6-6.6c-2.4-1.8-3.4-3-3.4-3.6v-7.6h28v1.2
	C132.6,109.3,132.6,111.7,132.4,112.1z M132.4,91.5v6h-27.8v-6H132.4z M168.8,121.4c5,3.2,12.2,7.6,12.4,7.8l1.8,1l1.8-1
	c0.4-0.2,8.4-4.6,13.2-7.8c4.2-2.6,6-5.6,6.2-9V84.2h-41.9v28.4C162.6,115.6,164.8,118.6,168.8,121.4z M197.3,112.3
	c0,1.4-2,2.8-3,3.4c-3.4,2.2-8.4,5.2-11,6.6c-2.4-1.6-7.2-4.4-10.4-6.6c-2.4-1.8-3.4-3-3.4-3.6v-0.8c0,0,10.8-7.8,13.8-10
	c2.6,1.8,11.4,7.6,14.2,9.4C197.5,111.5,197.5,111.9,197.3,112.3C197.3,112.1,197.3,112.3,197.3,112.3L197.3,112.3z M169.4,91.3h28
	v11L183,92.9l-1.8,1.6l-11.8,8.6v-3.2C169.4,96.9,169.4,93.9,169.4,91.3L169.4,91.3z M168.8,163.2l8.8,0.2v3.8l-8.8-0.2
	c-1.6,0-3-0.2-5-0.4l-3-0.4h-1.6l-0.2-3.6h2l3,0.4C166,163,167.6,163.2,168.8,163.2L168.8,163.2z M168.8,174.6l8.8,0.2v3.8l-8.8-0.2
	c-1.6,0-3-0.2-5-0.4l-3-0.4h-1.6L159,174h2l3,0.4C166,174.4,167.6,174.6,168.8,174.6L168.8,174.6z M159.4,188.7l-0.2-3.8h2l3.2,0.4
	c1.8,0.2,3.2,0.4,4.4,0.4l4.2,0.2l4.8,0.2v3.8l-4.8-0.2l-4.2-0.2c-1.4,0-3-0.2-4.8-0.4l-3.2-0.4H159.4z M168.8,196.9l8.8,0.2v3.8
	l-8.8-0.2c-1.4,0-3-0.2-4.8-0.4c0,0-3-0.4-3.2-0.4h-1.6l-0.2-3.8h2l3.2,0.4C166,196.7,167.6,196.9,168.8,196.9z M122,167v-3.8
	l8.8-0.2c1.4,0,2.8-0.2,4.8-0.4l2.8-0.4h1.8v3.8h-1.6l-2.8,0.4c-1.8,0.2-3.6,0.4-5,0.4L122,167z M138.4,173.8h1.8v3.8h-1.6L136,178
	c-1.8,0.2-3.6,0.4-5,0.4l-8.8,0.2L122,175l8.8-0.2c1.4,0,2.8-0.2,4.8-0.4C135.4,174,138.4,173.8,138.4,173.8L138.4,173.8
	L138.4,173.8z M138.4,185h1.8v3.8h-1.6l-3,0.4c-1.8,0.2-3.4,0.4-4.8,0.4h-1l-8,0.2V186l8-0.2h1c1.4,0,2.8-0.2,4.6-0.4L138.4,185z
	 M138.4,196.3h1.8v3.8h-1.6l-2.8,0.4c-1.8,0.2-3.6,0.4-5,0.4H130l-7.6,0.2v-3.8l7.6-0.2h1.4c1.4,0,2.8-0.2,4.8-0.4
	C135.6,196.3,138.4,196.3,138.4,196.3L138.4,196.3L138.4,196.3z M132,27l-1.2-12.8l4-0.4l1,11.8c0.4,3.4,1.6,5.6,4.6,5.2
	c3-0.2,4-2.6,3.6-6L143,13l4-0.4l1.2,12.8c0.4,5.4-2.4,8-7.6,8.4C135.6,34.4,132.4,32.2,132,27z M71.1,63.3L58.3,47.7l9-7.4l2,2.4
	l-6,5l3.2,4l5.4-4.6l2,2.4l-5.4,4.6l3.6,4.4l6-5l2,2.4C80.1,55.9,71.1,63.3,71.1,63.3z M105.7,41.7l-6.8-19l3.8-1.4l5.8,16l7.4-2.6
	l1.2,3L105.7,41.7z M162,33.6l-3.8-0.6l2.6-20l5,0.6l5.4,16l2-15l3.8,0.6l-2.6,20l-5-0.6l-5.4-16C164,18.6,162,33.6,162,33.6z
	 M53.7,82.5L38.3,69.7l3.2-3.8l16.4,3.8l-11.8-9.6l2.4-3l15.4,12.8l-3.2,3.8l-16.4-3.8l11.8,9.6C56.1,79.5,53.7,82.5,53.7,82.5z
	 M44.1,98.7l-7.4-4l0.6-1.2c0.8-1.6,1.6-1.8,3.2-1.6l6.6,1l2-4l-8.6-1c-1,0-2.2,0-2.8,1c1-2.4-0.2-4.8-2.2-5.8
	c-5-2.6-7.2,1.8-9.2,5.6l-2,3.8l17.8,9.4C42.1,101.9,44.1,98.7,44.1,98.7z M34.6,92.1L34,93.3l-4.8-2.6l0.6-1.2c1-1.8,2-3.6,4.4-2.4
	C36.4,88.1,35.4,90.3,34.6,92.1z M257.7,103.9l18.8-7.8l1.6,3.8l-18.8,7.6L257.7,103.9z M187.4,38.7l-3.8-1.2l6-19.2l3.8,1.2
	L187.4,38.7z M279.6,116.2l-1.4-5.4l3-0.8l3.8,15l-3,0.8l-1.4-5.4l-16.6,4.2l-1-4C263,120.6,279.6,116.2,279.6,116.2z M275,142.2
	l12-8l0.2,4.8l-8.4,5.2l8.6,4.4l0.2,4.2l-12.6-6.4l-8,0.4l-0.2-4L275,142.2L275,142.2z M256.5,89.7c3.4-1.8-2.4-8.6,3.2-12
	c4-2.2,7-0.2,8.8,2.8c1,1.6,1.6,3,1.8,4.6l-3,1.4c-0.2-1.4-0.6-2.6-1.4-4c-0.8-1.2-2-2.4-4-1.4c-3,1.8,2.6,8.6-3.2,12
	c-3.8,2.2-7,0.2-9-3.4c-1.2-1.8-1.4-2.8-1.8-4.8l3.4-1.6c0,1.6,0.4,3.2,1.2,4.6C253.3,89.1,254.9,90.5,256.5,89.7L256.5,89.7
	L256.5,89.7z M236.1,70.5l6.2-5.4l0.8,1c1.2,1.4,1,2,0.2,3.4l-3.2,6l3,3.4l3.8-7.6c0.4-1,0.8-2,0.2-3c1.8,1.8,4.6,1.6,6.2,0
	c4.2-3.8,0.8-7.4-2-10.8l-2.8-3.2l-15.4,13.4C233.1,67.7,236.1,70.5,236.1,70.5z M248.7,59.1l1,1c1.4,1.6,2.6,3.4,0.8,5
	c-1.8,1.8-3.6,0.2-5-1.4l-1-1L248.7,59.1z M205.1,46.5l-4.4-2.2l3-21.2l3.8,1.8l-2.6,16.4l11.8-12l3.6,1.8L205.1,46.5L205.1,46.5z
	 M217.5,54.1l12.4-15.8l9.2,7.2l-1.8,2.4l-6-4.8l-3,4l5.6,4.4l-1.8,2.4l-5.6-4.4l-3.6,4.6l6.2,5l-1.8,2.4L217.5,54.1L217.5,54.1z
	 M88.1,50.7L78.3,33l3.6-1.8l8.4,15l6.8-3.8l1.6,2.8L88.1,50.7z M196.1,275.8l1.4,3.8l-3.8,1.4l-1.4-3.8L196.1,275.8z M171.4,266.2
	l-3.4,21.4l4.2-1l0.8-5l8-1.8l2.6,4.2l4.4-1l-12-18.2L171.4,266.2z M173.2,278.6l1.2-8.6l4.6,7.6L173.2,278.6z M259.7,223.3
	c-1.8-1.4-4-1.6-6.6,0c0.6-2.2-0.4-4.6-1.8-5.4c-2.6-2-5.8-0.4-8,2.4c-2.2,3-2.4,6.2,0.6,8.4c1.8,1.4,3.8,1.2,5.8,0
	c-0.6,2.6,0,4.6,1.8,5.8c3.2,2.4,6.6,1,8.8-2.2C262.7,229.1,263.1,225.7,259.7,223.3L259.7,223.3z M250.7,224.5
	c-1.4,0.8-3,1.8-4.4,0.8s-1.2-2.6-0.2-3.8c1-1.4,2.2-1.4,3.6-0.6C250.5,221.9,250.9,223.5,250.7,224.5L250.7,224.5z M258.1,230.5
	c-1,1.4-2.8,1.8-4.2,0.8s-1.6-2.4-1.2-4c1.6-1,3.2-1.8,5-0.6C258.9,227.5,258.9,229.1,258.1,230.5L258.1,230.5z M139.8,268.2
	l-5.4-0.4l-1.2,20.2l5.4,0.4c6.2,0.4,11.8-1.6,12.2-9.4C151.4,270.8,145.8,268.4,139.8,268.2L139.8,268.2z M146.6,278.6
	c-0.2,4.4-3.6,6.8-7,6.6l-2.2-0.2l0.8-13.8l2.2,0.2C143.8,271.6,146.8,274.2,146.6,278.6L146.6,278.6z M23.8,125.8
	c6,1.8,11-0.4,12.8-6.6c1.8-6-1.6-10.6-7.4-12.2c-5.8-1.8-11,0.6-12.6,6.6C14.6,119.6,18,124.2,23.8,125.8z M19.6,114.4
	c1.2-3.8,5.2-4.4,8.6-3.4c3.6,1,6.6,3.4,5.4,7.4s-5.2,4.4-8.6,3.4C21.4,120.8,18.4,118.2,19.6,114.4z M202.3,255.5l-5,2.6l9.6,17.8
	l5-2.6c5.4-3,9.2-7.4,5.4-14.4S207.7,252.7,202.3,255.5L202.3,255.5z M210.9,270.2l-2,1.2l-6.6-12l2-1.2c3-1.8,7-1,9,2.8
	C215.7,264.8,213.9,268.4,210.9,270.2z M114,263.1l11.6,3l-0.8,3l-7.6-2l-1.4,5l7,1.8l-0.8,3l-7-1.8l-1.6,5.4l7.8,2l-0.8,3l-11.6-3
	C108.8,282.5,114,263.1,114,263.1z M226.5,259.7l2.2,3.4l-3.4,2.2l-2.2-3.4L226.5,259.7z M234.1,231.7l14.2,14.4l-2.8,2.8l-11-11.2
	l-0.6,4.4l-3.2-0.4l1-7.6L234.1,231.7L234.1,231.7z M25.6,184.2l-8.6,2.4l-1.2-4l19.4-5.6l3,10.8l-3,1l-2-7l-4.8,1.4l1.8,6.6l-3,1
	L25.6,184.2L25.6,184.2z M282,189.5c-0.4,1.6-1.2,3.2-1.8,4.4l-3.4-1.2c0.8-0.8,1.8-1.8,2-3.6c0.6-2,0.4-4.4-2.2-5.2
	c-2.4-0.8-4,1.2-4.8,3.4c-0.4,1.2-0.6,2.4-0.6,3.6l-10.4-3.2l3.4-11.2l2.8,1l-2.2,7.6l4.2,1.4c0-0.6,0.2-1.2,0.4-1.8
	c0.8-2.6,3.2-5.8,8.2-4.4C281.2,181.2,283.2,184.8,282,189.5L282,189.5z M21.8,150.4c-7-0.4-10.6-5-10.2-11.6c0-1.4,0.4-3,1.2-4.6
	l3.4,0.6c-1,1.6-1.4,2.8-1.4,4.2c-0.2,4.2,2.8,6.8,7,7.2c4.2,0.2,7.4-2,7.6-6.2c0.2-1.6-0.2-3.4-0.6-4.4h3.4c0.2,1.6,0.4,3,0.4,4.6
	C32.2,146.6,28.6,151,21.8,150.4C21.8,150.4,21.8,150.4,21.8,150.4z M44.9,201.9c-2.8-5.6-8.2-7-13.6-4.4s-8,7.8-5.2,13.4
	c2.8,5.6,8.4,7,13.8,4.2C45.3,212.7,47.7,207.7,44.9,201.9L44.9,201.9z M38.2,211.7c-3.2,1.8-7.2,1.8-9-1.8s0.8-6.6,4.2-8.4
	c3.2-1.6,7.2-1.8,8.8,1.8C43.7,206.9,41.3,210.1,38.2,211.7L38.2,211.7z M269.6,202.1c-3.4-1.8-6.4-1-8.2,2.4
	c-0.8,1.6-0.8,2.8,0,4.4c-2.6-1.6-5.2-4-3.4-7c0.6-1.4,1.4-2,2.2-2.8l-2.6-1.8c-1.2,1-1.8,2-2.4,3.4c-2.8,5.8,1.8,10.2,6.6,12.4
	c4.2,2,8.8,3,11.6-1.8C275.2,207.1,273.6,203.9,269.6,202.1L269.6,202.1L269.6,202.1z M270.4,209.9c-1,1.8-2.8,1.8-4.6,1
	c-1.8-1-3-2.4-2.2-4.2c1-1.8,2.8-1.8,4.6-0.8C270,206.7,271.4,208.3,270.4,209.9z M63.7,230.7l-10.2,8.2c-4.2,3.4-8,2.4-11.2-1.8
	c-3.2-4-3.4-8,1-11.2l10.2-8l2.4,3.2l-9,7.2c-2.6,2-3.8,4.4-1.8,6.8c1.8,2.4,4.4,1.8,7-0.2l9-7.4L63.7,230.7z M95.5,255.1l-5-2.4
	l-9,18.2l5,2.4c5.4,2.8,11.4,3.4,15-3.8C104.9,262.3,100.9,258.1,95.5,255.1L95.5,255.1L95.5,255.1z M97.5,267.6c-2,4-6,4.8-9,3.2
	l-2-1l6.2-12.4l2,1C97.7,259.9,99.5,263.6,97.5,267.6L97.5,267.6z M82.9,247.9l-12.8,15.6l-3.8-3l3.6-16.6l-9.6,11.8l-3-2.4
	l12.8-15.6l3.8,3.2l-3.6,16.6l9.6-11.8L82.9,247.9L82.9,247.9z"/>
</svg>
